packages/timezone_map/assets/tz_8.5.svg

<svg width="1671.094" height="856.39252" viewBox="0 0 1671.094 856.39252" xmlns="http://www.w3.org/2000/svg" xmlns:usvg="https://github.com/RazrFalcon/usvg" usvg:version="0.8.0">
    <path id="path42698-5" fill="#3e73c5" fill-opacity="0.428571" stroke="#000000" stroke-opacity="0.246753" stroke-linecap="round" stroke-linejoin="round" d="M 1374.906 358.42352 L 1373.1248 356.98588 L 1372.3123 356.07963 L 1370.3123 355.07963 L 1370.5936 354.20463 L 1370.8748 354.01713 L 1371.2186 353.11088 L 1371.1246 352.20463 L 1372.0308 351.76713 L 1372.9996 350.95463 L 1374.9058 350.57963 L 1375.8121 350.04838 L 1376.5308 349.14213 L 1378.3121 348.32963 L 1378.5934 347.79838 L 1379.4058 346.89213 L 1380.4058 346.54838 L 1381.3121 345.98588 L 1381.2181 345.11088 L 1381.4681 343.29838 L 1380.9368 342.39213 L 1381.3743 341.42338 L 1381.9993 340.51713 L 1382.4681 340.14213 L 1382.4681 339.98588 L 1384.2493 338.51713 L 1385.1555 338.26713 L 1385.7181 338.26713 L 1385.2493 337.54838 L 1384.9055 336.92338 L 1384.9055 336.73588 L 1384.1868 336.45463 L 1383.6555 335.92338 L 1383.6245 335.92338 L 1383.6245 335.82968 L 1383.5625 335.54843 L 1383.6245 334.92343 L 1382.4683 334.48593 L 1381.8433 334.48593 L 1381.8443 334.48593 L 1381.8443 334.48593 L 1381.313 336.01718 L 1381.313 336.54843 L 1380.8443 337.45468 L 1380.4067 337.64218 L 1379.2193 337.64218 L 1379.1253 337.73588 L 1378.7815 338.70463 L 1377.8753 339.32963 L 1377.1565 339.70463 L 1375.2815 339.89213 L 1375.2505 339.89213 L 1375.2505 339.79843 L 1374.563 339.70473 L 1373.4693 339.98598 L 1373.5633 340.70473 L 1373.907 341.42348 L 1373.907 341.51718 L 1374.5633 342.29843 L 1374.0946 343.20468 L 1373.282 343.01718 C 1373.229 343.00678 1373.105 342.96018 1373.0633 342.95468 L 1372.8446 342.95468 L 1372.3758 343.11093 C 1372.1124 343.11993 1371.8802 343.12273 1371.657 343.11093 C 1371.624 343.10993 1371.595 343.11293 1371.563 343.11093 C 1371.484 343.10593 1371.4183 343.08733 1371.3443 343.07973 C 1371.1833 343.06553 1371.0206 343.04373 1370.8755 343.01723 C 1369.7535 342.81212 1369.0414 342.2462 1368.063 341.04848 L 1367.063 341.67348 L 1366.7193 341.76718 L 1366.5317 342.67343 L 1366.2817 342.95468 L 1366.2817 343.01718 L 1365.188 344.54843 L 1365.094 344.64213 L 1364.3752 345.36088 L 1363.469 345.98588 L 1362.5627 346.17338 L 1362.1252 346.79838 L 1361.219 347.36088 L 1360.8752 347.45458 L 1360.2502 347.61083 L 1359.344 348.42333 L 1359.0627 348.42333 L 1358.6252 348.51703 L 1356.5627 350.23578 L 1356.4687 350.32948 L 1356.4687 350.42318 L 1356.3747 350.42318 L 1356.8122 350.86068 L 1356.3747 350.95438 L 1356.5622 351.86063 L 1357.4372 352.48563 L 1358.3435 352.39193 L 1359.5309 353.11068 L 1360.4997 353.39193 L 1361.4059 353.29823 L 1361.0622 354.01698 L 1361.2185 354.92323 L 1360.1559 356.70448 L 1360.4997 357.61073 L 1360.4377 357.89198 L 1361.3127 357.61073 L 1362.3127 358.42323 L 1361.1252 358.04823 L 1360.2502 358.14193 L 1359.344 358.61068 L 1359.344 359.23568 L 1358.969 359.42318 L 1358.344 361.20443 L 1360.2502 361.48568 L 1359.344 362.11068 L 1360.7814 362.82943 L 1361.6877 362.39193 L 1361.3127 363.26693 L 1362.3127 362.54818 L 1362.1252 361.67318 L 1363.9377 362.45443 L 1364.8127 362.54813 L 1365.8127 362.39188 L 1366.719 362.92313 L 1367.188 362.64152 L 1369.026 359.69052 L 1373.919 359.72852 Z"/>
    <path id="path42698" fill="#8cce55" stroke="#0f380f" stroke-opacity="0.145098" stroke-linecap="round" stroke-linejoin="round" transform="matrix(1 0 0 1 0.5 1.2670726)" d="M 1374.406 357.15644 L 1372.6248 355.7188 L 1371.8123 354.81255 L 1369.8123 353.81255 L 1370.0936 352.93755 L 1370.3748 352.75005 L 1370.7186 351.8438 L 1370.6246 350.93755 L 1371.5308 350.50005 L 1372.4996 349.68755 L 1374.4058 349.31255 L 1375.3121 348.7813 L 1376.0308 347.87505 L 1377.8121 347.06255 L 1378.0934 346.5313 L 1378.9058 345.62505 L 1379.9058 345.2813 L 1380.8121 344.7188 L 1380.7181 343.8438 L 1380.9681 342.0313 L 1380.4368 341.12505 L 1380.8743 340.1563 L 1381.4993 339.25005 L 1381.9681 338.87505 L 1381.9681 338.7188 L 1383.7493 337.25005 L 1384.6555 337.00005 L 1385.2181 337.00005 L 1384.7493 336.2813 L 1384.4055 335.6563 L 1384.4055 335.4688 L 1383.6868 335.18755 L 1383.1555 334.6563 L 1383.1245 334.6563 L 1383.1245 334.5626 L 1383.0625 334.28135 L 1383.1245 333.65635 L 1381.9683 333.21885 L 1381.3433 333.21885 L 1381.3443 333.21885 L 1381.3443 333.21885 L 1380.813 334.7501 L 1380.813 335.28135 L 1380.3443 336.1876 L 1379.9067 336.3751 L 1378.7193 336.3751 L 1378.6253 336.4688 L 1378.2815 337.43755 L 1377.3753 338.06255 L 1376.6565 338.43755 L 1374.7815 338.62505 L 1374.7505 338.62505 L 1374.7505 338.53135 L 1374.063 338.43765 L 1372.9693 338.7189 L 1373.0633 339.43765 L 1373.407 340.1564 L 1373.407 340.2501 L 1374.0633 341.03135 L 1373.5946 341.9376 L 1372.782 341.7501 C 1372.729 341.7397 1372.605 341.6931 1372.5633 341.6876 L 1372.3446 341.6876 L 1371.8758 341.84385 C 1371.6124 341.85285 1371.3802 341.85565 1371.157 341.84385 C 1371.124 341.84285 1371.095 341.84585 1371.063 341.84385 C 1370.984 341.83885 1370.9183 341.82025 1370.8443 341.81265 C 1370.6833 341.79845 1370.5206 341.77665 1370.3755 341.75015 C 1369.2535 341.54504 1368.5414 340.97912 1367.563 339.7814 L 1366.563 340.4064 L 1366.2193 340.5001 L 1366.0317 341.40635 L 1365.7817 341.6876 L 1365.7817 341.7501 L 1364.688 343.28135 L 1364.594 343.37505 L 1363.8752 344.0938 L 1362.969 344.7188 L 1362.0627 344.9063 L 1361.6252 345.5313 L 1360.719 346.0938 L 1360.3752 346.1875 L 1359.7502 346.34375 L 1358.844 347.15625 L 1358.5627 347.15625 L 1358.1252 347.24995 L 1356.0627 348.9687 L 1355.9687 349.0624 L 1355.9687 349.1561 L 1355.8747 349.1561 L 1356.3122 349.5936 L 1355.8747 349.6873 L 1356.0622 350.59355 L 1356.9372 351.21855 L 1357.8435 351.12485 L 1359.0309 351.8436 L 1359.9997 352.12485 L 1360.9059 352.03115 L 1360.5622 352.7499 L 1360.7185 353.65615 L 1359.6559 355.4374 L 1359.9997 356.34365 L 1359.9377 356.6249 L 1360.8127 356.34365 L 1361.8127 357.15615 L 1360.6252 356.78115 L 1359.7502 356.87485 L 1358.844 357.3436 L 1358.844 357.9686 L 1358.469 358.1561 L 1357.844 359.93735 L 1359.7502 360.2186 L 1358.844 360.8436 L 1360.2814 361.56235 L 1361.1877 361.12485 L 1360.8127 361.99985 L 1361.8127 361.2811 L 1361.6252 360.4061 L 1363.4377 361.18735 L 1364.3127 361.28105 L 1365.3127 361.1248 L 1366.219 361.65605 L 1366.688 361.37444 L 1368.526 358.42344 L 1373.419 358.46144 Z"/>
</svg>

<svg width="1671.094" height="856.393" xmlns="http://www.w3.org/2000/svg" xmlns:usvg="https://github.com/RazrFalcon/usvg" usvg:version="0.8.0"><path fill="#3e73c5" fill-opacity=".429" stroke="#000" stroke-opacity=".247" stroke-linecap="round" stroke-linejoin="round" d="m1374.906 358.424-1.781-1.438-.813-.906-2-1 .282-.875.28-.188.345-.906-.094-.906.906-.438.969-.812 1.906-.375.906-.532.719-.906 1.781-.812.281-.532.813-.906 1-.344.906-.562-.094-.875.25-1.813-.531-.906.437-.969.625-.906.47-.375v-.156l1.78-1.469.907-.25h.562l-.469-.719-.343-.625v-.187l-.72-.281-.53-.532h-.032v-.093l-.062-.282.063-.625-1.157-.437h-.625.001l-.531 1.531v.531l-.469.907-.437.187h-1.188l-.094.094-.343.969-.907.625-.718.375-1.875.187h-.031v-.094l-.688-.093-1.094.281.094.719.344.718v.094l.656.781-.468.907-.813-.188c-.053-.01-.177-.057-.219-.062h-.218l-.47.156a8.27 8.27 0 0 1-.718 0c-.033-.001-.062.002-.094 0-.079-.005-.145-.024-.219-.031a5.216 5.216 0 0 1-.468-.063c-1.122-.205-1.835-.77-2.813-1.969l-1 .625-.344.094-.187.906-.25.282v.062l-1.094 1.531-.094.094-.719.719-.906.625-.906.187-.438.625-.906.563-.344.094-.625.156-.906.812h-.281l-.438.094-2.062 1.719-.094.093v.094h-.094l.437.438-.437.093.187.907.875.625.907-.094 1.187.719.969.28.906-.093-.344.719.157.906-1.063 1.781.344.907-.062.281.875-.281 1 .812-1.188-.375-.875.094-.906.469v.625l-.375.187-.625 1.781 1.906.282-.906.625 1.437.718.907-.437-.375.875 1-.719-.188-.875 1.813.781.875.094 1-.156.906.531.469-.281 1.838-2.951 4.893.038Z"/><path fill="#8cce55" stroke="#0f380f" stroke-opacity=".145" stroke-linecap="round" stroke-linejoin="round" d="m1374.906 358.424-1.781-1.438-.813-.906-2-1 .282-.875.28-.188.345-.906-.094-.906.906-.438.969-.812 1.906-.375.906-.532.719-.906 1.781-.812.281-.532.813-.906 1-.344.906-.562-.094-.875.25-1.813-.531-.906.437-.969.625-.906.47-.375v-.156l1.78-1.469.907-.25h.562l-.469-.719-.343-.625v-.187l-.72-.281-.53-.532h-.032v-.093l-.062-.282.063-.625-1.157-.437h-.625.001l-.531 1.531v.531l-.469.907-.437.187h-1.188l-.094.094-.343.969-.907.625-.718.375-1.875.187h-.031v-.094l-.688-.093-1.094.281.094.719.344.718v.094l.656.781-.468.907-.813-.188c-.053-.01-.177-.057-.219-.062h-.218l-.47.156a8.27 8.27 0 0 1-.718 0c-.033-.001-.062.002-.094 0-.079-.005-.145-.024-.219-.031a5.216 5.216 0 0 1-.468-.063c-1.122-.205-1.835-.77-2.813-1.969l-1 .625-.344.094-.187.906-.25.282v.062l-1.094 1.531-.094.094-.719.719-.906.625-.906.187-.438.625-.906.563-.344.094-.625.156-.906.812h-.281l-.438.094-2.062 1.719-.094.093v.094h-.094l.437.438-.437.093.187.907.875.625.907-.094 1.187.719.969.28.906-.093-.344.719.157.906-1.063 1.781.344.907-.062.281.875-.281 1 .812-1.188-.375-.875.094-.906.469v.625l-.375.187-.625 1.781 1.906.282-.906.625 1.437.718.907-.437-.375.875 1-.719-.188-.875 1.813.781.875.094 1-.156.906.531.469-.281 1.838-2.951 4.893.038Z"/></svg>
